X:190
T: ES RITT EIN JAEGER WOHLGEMUTH
N: Z0189
O: Europa, Mitteleuropa, Deutschland
R: Staende -, Jaeger - Lied
M: 4/4
L: 1/8
K: C
G,2 | C2C2C2B,C | D2D2D2
CD | E2D2E2E2 | D4C2
G,2 | C2C2C2B,C | D2D2D2
CD | E2D2E2E2 | D4C2
E2 | D2D2D2CD | E2E2E2
DE | F2F2F2EF | G2G2G2
G2 | E4D2G2 | E4D2
B,2 | C4G,2G,G, | A,2A,A,B,2B,2 | C6

@@@ Tune index: 9948
